app/assets/images/Contenido/Odin/Inmuebles.svg

<svg fill="none" height="130" viewBox="0 0 117 130" width="117" xmlns="http://www.w3.org/2000/svg"><circle cx="57.8343" cy="45.4964" r="44.3397" stroke="#000" stroke-width="2.31337"/><g fill="#000"><path d="m12.2193 124.873v-14.218h2.6405v14.218zm19.9325-10.968c2.6202 0 4.4482 1.482 4.4482 4.753v6.215h-2.5389v-5.89c0-1.93-.8937-2.864-2.4374-2.864-1.6656 0-2.8233 1.097-2.8233 3.25v5.504h-2.539v-5.89c0-1.93-.8937-2.864-2.4374-2.864-1.6858 0-2.8233 1.097-2.8233 3.25v5.504h-2.5389v-10.846h2.4171v1.381c.8124-.975 2.0717-1.503 3.5545-1.503 1.5843 0 2.9046.589 3.6561 1.807.8734-1.117 2.3358-1.807 4.0623-1.807zm15.6548.122h2.539v10.846h-2.4171v-1.381c-.8125.995-2.0921 1.523-3.4936 1.523-2.7827 0-4.6717-1.523-4.6717-4.793v-6.195h2.539v5.849c0 1.971.9343 2.905 2.5389 2.905 1.7672 0 2.9655-1.097 2.9655-3.27zm16.0597 5.484c0 .203-.0203.508-.0406.751h-8.5106c.3047 1.585 1.6249 2.6 3.5139 2.6 1.2187 0 2.1733-.386 2.9452-1.178l1.3609 1.564c-.975 1.158-2.4984 1.767-4.367 1.767-3.6358 0-5.9919-2.336-5.9919-5.565 0-3.23 2.3764-5.545 5.6059-5.545 3.1687 0 5.4842 2.214 5.4842 5.606zm-5.4842-3.575c-1.6452 0-2.8436 1.056-3.0873 2.64h6.1544c-.2031-1.564-1.4015-2.64-3.0671-2.64zm13.9352-2.031c3.1686 0 5.5045 2.173 5.5045 5.545s-2.3359 5.565-5.5045 5.565c-1.4827 0-2.742-.508-3.5951-1.544v1.402h-2.4171v-15.071h2.5389v5.545c.8734-.975 2.0921-1.442 3.4733-1.442zm-.2843 8.937c1.828 0 3.2092-1.32 3.2092-3.392s-1.3812-3.392-3.2092-3.392c-1.8281 0-3.2296 1.32-3.2296 3.392s1.4015 3.392 3.2296 3.392zm8.1966 2.031v-15.071h2.539v15.071zm16.0678-5.362c0 .203-.0203.508-.0407.751h-8.5105c.3047 1.585 1.6249 2.6 3.5139 2.6 1.2187 0 2.1733-.386 2.9452-1.178l1.3609 1.564c-.975 1.158-2.4984 1.767-4.367 1.767-3.6358 0-5.992-2.336-5.992-5.565 0-3.23 2.3765-5.545 5.606-5.545 3.1686 0 5.4842 2.214 5.4842 5.606zm-5.4842-3.575c-1.6452 0-2.8436 1.056-3.0873 2.64h6.1544c-.2031-1.564-1.4015-2.64-3.0671-2.64zm11.2748 9.079c-1.808 0-3.6159-.528-4.5908-1.219l.9749-1.929c.9547.63 2.4169 1.076 3.7779 1.076 1.605 0 2.275-.446 2.275-1.198 0-2.072-6.7028-.122-6.7028-4.448 0-2.052 1.8483-3.392 4.7728-3.392 1.443 0 3.088.345 4.063.934l-.975 1.93c-1.036-.61-2.072-.813-3.108-.813-1.544 0-2.275.508-2.275 1.219 0 2.194 6.703.244 6.703 4.489 0 2.031-1.869 3.351-4.915 3.351z"/><path d="m52.9142 59.7822h-2.0492c-.4716 0-.8538.3824-.8538.8538 0 .4715.3822.8538.8538.8538h2.0492c.4716 0 .8538-.3823.8538-.8538 0-.4714-.3822-.8538-.8538-.8538z"/><path d="m85.6353 65.2462h-5.6347v-18.9557l1.5218 1.4529c.1644.157.3768.2363.5897.2363.1947 0 .3896-.0663.5489-.1999l3.3886-2.8445c.1143-.096.2095-.2153.2636-.3543.1308-.3353.0404-.6997-.205-.9337l-5.8799-5.5997v-8.0818c0-.4715-.3823-.8538-.8538-.8538-.4714 0-.8538.3823-.8538.8538v6.4556l-8.9933-8.5648v-4.2387h8.9933v2.3633c0 .4715.3824.8538.8538.8538.4715 0 .8538-.3823.8538-.8538v-3.2171c0-.4715-.3823-.8538-.8538-.8538h-10.7009c-.4715 0-.8538.3823-.8538.8538v3.4662l-7.7952-7.4238-1.699-1.5782c-.3277-.3044-.8347-.3043-1.1621 0l-1.7067 1.5855-26.0758 24.8334c-.2455.2339-.3359.5983-.2051.9337.0543.139.1494.2583.2637.3543l3.3886 2.8446c.3334.2798.8237.2641 1.1385-.0364l1.5226-1.4537v5.5885c0 .4714.3823.8538.8538.8538s.8538-.3824.8538-.8538v-7.2189l20.5477-19.6176 20.5484 19.6184v20.5862h-18.4989c-.4715 0-.8538.3823-.8538.8538v5.9829h-2.3906v-23.591c0-.4715-.3824-.8538-.8538-.8538h-14.1162c-.4715 0-.8538.3823-.8538.8538v23.591h-.9595v-5.9829c0-.4715-.3823-.8538-.8538-.8538h-1.7158v-9.3835c0-.4715-.3823-.8538-.8538-.8538s-.8538.3823-.8538.8538v9.3835h-5.6354c-.4715 0-.8538.3823-.8538.8538v6.8368c0 .4715.3823.8538.8538.8538h9.0588c.0008 0 .0015-.0001.0021-.0001h2.6648 14.1161 4.0961c.0007 0 .0015.0001.0022.0001h25.8414c.4715 0 .8539-.3823.8539-.8538v-6.8368c0-.4717-.3824-.8539-.8539-.8539zm-47.5765 6.8367h-1.7158v.0001h-5.6354v-5.1292h7.3512zm16.7832 0h-12.4085v-22.7372h12.4085zm3.4922-48.8392c-.1651-.1574-.3773-.2362-.5896-.2362-.2124 0-.4246.0788-.5896.2362l-23.8146 22.7367-2.0905-1.755 25.3768-24.1678 1.1179-1.0386 1.11 1.0313 25.3845 24.1751-2.0906 1.755zm26.4473 48.8393h-5.6347v-.0001h-18.4989v-5.1291h24.1338v5.1292z"/><path d="m75.8691 47.6383h-16.0749c-.4716 0-.8538.3823-.8538.8538v14.1161c0 .4715.3822.8539.8538.8539h16.0749c.4716 0 .8538-.3824.8538-.8539v-14.1161c0-.4716-.3822-.8538-.8538-.8538zm-.8538 14.116h-14.3673v-8.1191h14.3673zm0-9.8266h-14.3673v-2.5818h14.3673z"/><path d="m57.7449 32.8036c-2.6363 0-4.781 2.1447-4.781 4.7811 0 2.6363 2.1447 4.7811 4.781 4.7811s4.781-2.1448 4.781-4.7811-2.1447-4.7811-4.781-4.7811zm0 7.8546c-1.6947 0-3.0734-1.3788-3.0734-3.0735s1.3787-3.0735 3.0734-3.0735 3.0734 1.3787 3.0734 3.0735c0 1.6947-1.3787 3.0735-3.0734 3.0735z"/></g></svg>

<svg width="117" height="130" viewBox="0 0 117 130" fill="none" xmlns="http://www.w3.org/2000/svg">
<circle cx="57.8343" cy="45.4964" r="44.3397" stroke="black" stroke-width="2.31337"/>
<path d="M12.2193 124.873V110.655H14.8598V124.873H12.2193ZM32.1518 113.905C34.772 113.905 36.6 115.387 36.6 118.658V124.873H34.0611V118.983C34.0611 117.053 33.1674 116.119 31.6237 116.119C29.9581 116.119 28.8004 117.216 28.8004 119.369V124.873H26.2614V118.983C26.2614 117.053 25.3677 116.119 23.824 116.119C22.1382 116.119 21.0007 117.216 21.0007 119.369V124.873H18.4618V114.027H20.8789V115.408C21.6913 114.433 22.9506 113.905 24.4334 113.905C26.0177 113.905 27.338 114.494 28.0895 115.712C28.9629 114.595 30.4253 113.905 32.1518 113.905ZM47.8066 114.027H50.3456V124.873H47.9285V123.492C47.116 124.487 45.8364 125.015 44.4349 125.015C41.6522 125.015 39.7632 123.492 39.7632 120.222V114.027H42.3022V119.876C42.3022 121.847 43.2365 122.781 44.8411 122.781C46.6083 122.781 47.8066 121.684 47.8066 119.511V114.027ZM63.8663 119.511C63.8663 119.714 63.846 120.019 63.8257 120.262H55.3151C55.6198 121.847 56.94 122.862 58.829 122.862C60.0477 122.862 61.0023 122.476 61.7742 121.684L63.1351 123.248C62.1601 124.406 60.6367 125.015 58.7681 125.015C55.1323 125.015 52.7762 122.679 52.7762 119.45C52.7762 116.22 55.1526 113.905 58.3821 113.905C61.5508 113.905 63.8663 116.119 63.8663 119.511ZM58.3821 115.936C56.7369 115.936 55.5385 116.992 55.2948 118.576H61.4492C61.2461 117.012 60.0477 115.936 58.3821 115.936ZM72.3173 113.905C75.4859 113.905 77.8218 116.078 77.8218 119.45C77.8218 122.822 75.4859 125.015 72.3173 125.015C70.8346 125.015 69.5753 124.507 68.7222 123.471V124.873H66.3051V109.802H68.844V115.347C69.7174 114.372 70.9361 113.905 72.3173 113.905ZM72.033 122.842C73.861 122.842 75.2422 121.522 75.2422 119.45C75.2422 117.378 73.861 116.058 72.033 116.058C70.2049 116.058 68.8034 117.378 68.8034 119.45C68.8034 121.522 70.2049 122.842 72.033 122.842ZM80.2296 124.873V109.802H82.7686V124.873H80.2296ZM96.2974 119.511C96.2974 119.714 96.2771 120.019 96.2567 120.262H87.7462C88.0509 121.847 89.3711 122.862 91.2601 122.862C92.4788 122.862 93.4334 122.476 94.2053 121.684L95.5662 123.248C94.5912 124.406 93.0678 125.015 91.1992 125.015C87.5634 125.015 85.2072 122.679 85.2072 119.45C85.2072 116.22 87.5837 113.905 90.8132 113.905C93.9818 113.905 96.2974 116.119 96.2974 119.511ZM90.8132 115.936C89.168 115.936 87.9696 116.992 87.7259 118.576H93.8803C93.6772 117.012 92.4788 115.936 90.8132 115.936ZM102.088 125.015C100.28 125.015 98.4721 124.487 97.4972 123.796L98.4721 121.867C99.4268 122.497 100.889 122.943 102.25 122.943C103.855 122.943 104.525 122.497 104.525 121.745C104.525 119.673 97.8222 121.623 97.8222 117.297C97.8222 115.245 99.6705 113.905 102.595 113.905C104.038 113.905 105.683 114.25 106.658 114.839L105.683 116.769C104.647 116.159 103.611 115.956 102.575 115.956C101.031 115.956 100.3 116.464 100.3 117.175C100.3 119.369 107.003 117.419 107.003 121.664C107.003 123.695 105.134 125.015 102.088 125.015Z" fill="black"/>
<path d="M52.9142 59.7822H50.865C50.3934 59.7822 50.0112 60.1646 50.0112 60.636C50.0112 61.1075 50.3934 61.4898 50.865 61.4898H52.9142C53.3858 61.4898 53.768 61.1075 53.768 60.636C53.768 60.1646 53.3858 59.7822 52.9142 59.7822Z" fill="black"/>
<path d="M85.6353 65.2462H80.0006V46.2905L81.5224 47.7434C81.6868 47.9004 81.8992 47.9797 82.1121 47.9797C82.3068 47.9797 82.5017 47.9134 82.661 47.7798L86.0496 44.9353C86.1639 44.8393 86.2591 44.72 86.3132 44.581C86.444 44.2457 86.3536 43.8813 86.1082 43.6473L80.2283 38.0476V29.9658C80.2283 29.4943 79.846 29.112 79.3745 29.112C78.9031 29.112 78.5207 29.4943 78.5207 29.9658V36.4214L69.5274 27.8566V23.6179H78.5207V25.9812C78.5207 26.4527 78.9031 26.835 79.3745 26.835C79.846 26.835 80.2283 26.4527 80.2283 25.9812V22.7641C80.2283 22.2926 79.846 21.9103 79.3745 21.9103H68.6736C68.2021 21.9103 67.8198 22.2926 67.8198 22.7641V26.2303L60.0246 18.8065L58.3256 17.2283C57.9979 16.9239 57.4909 16.924 57.1635 17.2283L55.4568 18.8138L29.381 43.6472C29.1355 43.8811 29.0451 44.2455 29.1759 44.5809C29.2302 44.7199 29.3253 44.8392 29.4396 44.9352L32.8282 47.7798C33.1616 48.0596 33.6519 48.0439 33.9667 47.7434L35.4893 46.2897V51.8782C35.4893 52.3496 35.8716 52.732 36.3431 52.732C36.8146 52.732 37.1969 52.3496 37.1969 51.8782V44.6593L57.7446 25.0417L78.293 44.6601V65.2463H59.7941C59.3226 65.2463 58.9403 65.6286 58.9403 66.1001V72.083H56.5497V48.492C56.5497 48.0205 56.1673 47.6382 55.6959 47.6382H41.5797C41.1082 47.6382 40.7259 48.0205 40.7259 48.492V72.083H39.7664V66.1001C39.7664 65.6286 39.3841 65.2463 38.9126 65.2463H37.1968V55.8628C37.1968 55.3913 36.8145 55.009 36.343 55.009C35.8715 55.009 35.4892 55.3913 35.4892 55.8628V65.2463H29.8538C29.3823 65.2463 29 65.6286 29 66.1001V72.9369C29 73.4084 29.3823 73.7907 29.8538 73.7907H38.9126C38.9134 73.7907 38.9141 73.7906 38.9147 73.7906H41.5795H55.6956H59.7917C59.7924 73.7906 59.7932 73.7907 59.7939 73.7907H85.6353C86.1068 73.7907 86.4892 73.4084 86.4892 72.9369V66.1001C86.4892 65.6284 86.1068 65.2462 85.6353 65.2462ZM38.0588 72.0829H36.343V72.083H30.7076V66.9538H38.0588V72.0829ZM54.842 72.0829H42.4335V49.3457H54.842V72.0829ZM58.3342 23.2437C58.1691 23.0863 57.9569 23.0075 57.7446 23.0075C57.5322 23.0075 57.32 23.0863 57.155 23.2437L33.3404 45.9804L31.2499 44.2254L56.6267 20.0576L57.7446 19.019L58.8546 20.0503L84.2391 44.2254L82.1485 45.9804L58.3342 23.2437ZM84.7815 72.083H79.1468V72.0829H60.6479V66.9538H84.7817V72.083H84.7815Z" fill="black"/>
<path d="M75.8691 47.6383H59.7942C59.3226 47.6383 58.9404 48.0206 58.9404 48.4921V62.6082C58.9404 63.0797 59.3226 63.4621 59.7942 63.4621H75.8691C76.3407 63.4621 76.7229 63.0797 76.7229 62.6082V48.4921C76.7229 48.0205 76.3407 47.6383 75.8691 47.6383ZM75.0153 61.7543H60.648V53.6352H75.0153V61.7543ZM75.0153 51.9277H60.648V49.3459H75.0153V51.9277Z" fill="black"/>
<path d="M57.7449 32.8036C55.1086 32.8036 52.9639 34.9483 52.9639 37.5847C52.9639 40.221 55.1086 42.3658 57.7449 42.3658C60.3812 42.3658 62.5259 40.221 62.5259 37.5847C62.5259 34.9484 60.3812 32.8036 57.7449 32.8036ZM57.7449 40.6582C56.0502 40.6582 54.6715 39.2794 54.6715 37.5847C54.6715 35.89 56.0502 34.5112 57.7449 34.5112C59.4396 34.5112 60.8183 35.8899 60.8183 37.5847C60.8183 39.2794 59.4396 40.6582 57.7449 40.6582Z" fill="black"/>
</svg>
